src/icons/outline/status/information.svg

<svg width="24" height="24" viewBox="0 0 24 24" fill="none" xmlns="http://www.w3.org/2000/svg">
<g clip-path="url(#clip0_4536_407)">
<path d="M12.1162 10.0771C12.4913 10.1161 12.79 10.4395 12.79 10.8242V14.6377C12.7901 15.1181 13.1804 15.498 13.6504 15.498H14.25C14.6599 15.498 14.9999 15.8387 15 16.249C15 16.6594 14.66 17 14.25 17H13.6504C12.3504 17 11.2901 15.939 11.29 14.6377V10.8242C11.29 10.4138 11.63 10.0732 12.04 10.0732L12.1162 10.0771Z" fill="#3C3B44"/>
<path d="M12.0303 7C12.599 7.00015 13.0596 7.46192 13.0596 8.03125C13.0595 8.60048 12.5989 9.06235 12.0303 9.0625C11.4615 9.0625 11.0001 8.60057 11 8.03125C11 7.46183 11.4614 7 12.0303 7Z" fill="#3C3B44"/>
<path fill-rule="evenodd" clip-rule="evenodd" d="M12 2C17.5122 2 22 6.48775 22 12C22 17.5122 17.5122 22 12 22V21.9893C6.48775 21.9893 2 17.5011 2 12C2 6.49889 6.48775 2 12 2ZM12 3.66992C7.40089 3.66992 3.66992 7.40089 3.66992 12C3.66992 16.5991 7.40089 20.3301 12 20.3301C16.5991 20.3301 20.3301 16.5991 20.3301 12C20.3301 7.40089 16.588 3.66992 12 3.66992Z" fill="#3C3B44"/>
</g>
<defs>
<clipPath id="clip0_4536_407">
<rect width="24" height="24" fill="white"/>
</clipPath>
</defs>
</svg>

<svg xmlns="http://www.w3.org/2000/svg" width="24" height="24" fill="none" viewBox="0 0 24 24"><g fill="currentColor" clip-path="url(#a)"><path d="M12.04 10.073c.41 0 .75.34.75.751v3.814c0 .48.39.86.86.86h.6c.41 0 .75.34.75.751 0 .41-.34.751-.75.751h-.6c-1.3 0-2.36-1.061-2.36-2.362v-3.814c0-.41.34-.75.75-.75M12.03 7a1.03 1.03 0 1 1-.002 2.06A1.03 1.03 0 0 1 12.03 7"/><path fill-rule="evenodd" d="M12 2c5.512 0 10 4.488 10 10s-4.488 10-10 10v-.01C6.488 21.99 2 17.5 2 12S6.488 2 12 2m0 1.67A8.33 8.33 0 1 0 20.33 12c0-4.6-3.742-8.33-8.33-8.33" clip-rule="evenodd"/></g><defs><clipPath id="a"><path fill="currentColor" d="M0 0h24v24H0z"/></clipPath></defs></svg>
